assets/logo-travel.svg

<svg width="91" height="17" viewBox="0 0 91 17" fill="none" xmlns="http://www.w3.org/2000/svg">
<path d="M79.9707 16.4301V0.330078H82.2707V14.4291H90.9877V16.4301H79.9707Z" fill="#DCDEE6"/>
<path d="M66.6555 7.27608H74.9355V9.23108H66.6555V7.27608ZM66.8625 14.4291H76.2465V16.4301H64.5625V0.330078H75.9245V2.33108H66.8625V14.4291Z" fill="#DCDEE6"/>
<path d="M53.1719 16.4301L46.0879 0.330078H48.5719L55.0809 15.1881H53.6549L60.2099 0.330078H62.5099L55.4489 16.4301H53.1719Z" fill="#DCDEE6"/>
<path d="M30.0957 16.4301L37.3867 0.330078H39.6637L46.9777 16.4301H44.5627L38.0537 1.61808H38.9737L32.4647 16.4301H30.0957ZM33.2007 12.4051L33.8217 10.5651H42.8837L43.5507 12.4051H33.2007Z" fill="#DCDEE6"/>
<path d="M15.8223 16.4301V0.330078H22.1013C23.5119 0.330078 24.7156 0.552412 25.7123 0.997079C26.7089 1.44175 27.4756 2.08575 28.0123 2.92908C28.5489 3.77241 28.8173 4.77675 28.8173 5.94208C28.8173 7.10741 28.5489 8.11175 28.0123 8.95508C27.4756 9.78308 26.7089 10.4194 25.7123 10.8641C24.7156 11.3087 23.5119 11.5311 22.1013 11.5311H17.0873L18.1223 10.4731V16.4301H15.8223ZM26.5863 16.4301L22.4923 10.5881H24.9533L29.0933 16.4301H26.5863ZM18.1223 10.7031L17.0873 9.57608H22.0323C23.5043 9.57608 24.6159 9.26175 25.3673 8.63308C26.1339 7.98908 26.5173 7.09208 26.5173 5.94208C26.5173 4.79208 26.1339 3.90275 25.3673 3.27408C24.6159 2.64541 23.5043 2.33108 22.0323 2.33108H17.0873L18.1223 1.18108V10.7031Z" fill="#DCDEE6"/>
<path d="M5.52 16.4301V2.33108H0V0.330078H13.317V2.33108H7.797V16.4301H5.52Z" fill="#DCDEE6"/>
</svg>

<svg xmlns="http://www.w3.org/2000/svg" fill="none" viewBox="0 0 91 17"><path fill="#DCDEE6" d="M79.97 16.43V.33h2.3v14.1h8.718v2H79.97ZM66.656 7.276h8.28v1.955h-8.28V7.276Zm.206 7.153h9.385v2.001H64.563V.33h11.361v2.001h-9.062V14.43ZM53.172 16.43 46.088.33h2.484l6.509 14.858h-1.426L60.21.33h2.3l-7.061 16.1h-2.277ZM30.096 16.43l7.29-16.1h2.278l7.314 16.1h-2.415l-6.51-14.812h.92L32.466 16.43h-2.37Zm3.105-4.025.62-1.84h9.063l.667 1.84H33.2ZM15.822 16.43V.33h6.28c1.41 0 2.614.222 3.61.667.997.445 1.764 1.089 2.3 1.932.537.843.805 1.848.805 3.013 0 1.165-.268 2.17-.805 3.013-.536.828-1.303 1.464-2.3 1.91-.996.444-2.2.666-3.61.666h-5.015l1.035-1.058v5.957h-2.3Zm10.764 0-4.094-5.842h2.461l4.14 5.842h-2.507Zm-8.464-5.727-1.035-1.127h4.945c1.472 0 2.584-.314 3.335-.943.767-.644 1.15-1.54 1.15-2.69s-.383-2.04-1.15-2.669c-.751-.629-1.863-.943-3.335-.943h-4.945l1.035-1.15v9.522ZM5.52 16.43V2.331H0v-2h13.317v2h-5.52v14.1H5.52Z"/></svg>
